X: 33084
T: Primrose Lasses, The
R: reel
M: 4/4
K: Gmajor
B3A G3E|DB, (3B,B,B, DEGA|B3A G3E|DGBG ABGA|
B3A G3E|DB, (3B,B,B, DEGA|BGAF GEDE|GEDB, A,B,G,2||
B,DDG EDGD|EDGD EDB,A,|B,DDG EDEF|GEDB, A,B,G,2|
B,DDG EDGD|EDGD EDB,A,|B,DDG EDEF|GEDB, A,B,G,2||

